src/amo/components/CategoryIcon/img/social-communication.svg

<svg xmlns="http://www.w3.org/2000/svg" width="64" height="64" viewBox="0 0 64 64">
  <g class="one" fill="#0F1126">
    <path d="M49.7230769,19.4769231 C49.0433418,19.4769231 48.4923077,18.9258889 48.4923077,18.2461538 C48.4923077,17.5664188 49.0433418,17.0153846 49.7230769,17.0153846 L61.5384615,17.0153846 C62.2181966,17.0153846 62.7692308,17.5664188 62.7692308,18.2461538 L62.7692308,47.7846154 C62.7692308,48.4643505 62.2181966,49.0153846 61.5384615,49.0153846 L54.8923077,49.0153846 L54.8923077,57.6307692 C54.8923077,58.6318431 53.7607757,59.2141497 52.9461684,58.6322873 L39.4825045,49.0153846 L28.0615385,49.0153846 C27.3818034,49.0153846 26.8307692,48.4643505 26.8307692,47.7846154 C26.8307692,47.1048803 27.3818034,46.5538462 28.0615385,46.5538462 L39.8769231,46.5538462 C40.1334437,46.5538462 40.3835538,46.6339977 40.5922932,46.7830973 L52.4307692,55.2391516 L52.4307692,47.7846154 C52.4307692,47.1048803 52.9818034,46.5538462 53.6615385,46.5538462 L60.3076923,46.5538462 L60.3076923,19.4769231 L49.7230769,19.4769231 Z"/>
  </g>
  <g class="two" fill="#0F1126">
    <path d="M2.46153846,40.4 C1.10206831,40.4 0,39.2979317 0,37.9384615 L0,4.46153846 C0,3.10206831 1.10206831,2 2.46153846,2 L49.7230769,2 C51.0825471,2 52.1846154,3.10206831 52.1846154,4.46153846 L52.1846154,37.9384615 C52.1846154,39.2979317 51.0825471,40.4 49.7230769,40.4 L28.9864249,40.4 L13.9286267,53.5755734 C12.3370381,54.9682135 9.84615385,53.8379294 9.84615385,51.7230769 L9.84615385,40.4 L2.46153846,40.4 Z M4.92307692,6.92307692 L4.92307692,35.4769231 L12.3076923,35.4769231 C13.6671625,35.4769231 14.7692308,36.5789914 14.7692308,37.9384615 L14.7692308,46.2984167 L26.440604,36.0859651 C26.8893216,35.6933372 27.4652969,35.4769231 28.0615385,35.4769231 L47.2615385,35.4769231 L47.2615385,6.92307692 L4.92307692,6.92307692 Z"/>
  </g>
</svg>

<svg xmlns="http://www.w3.org/2000/svg" width="64" height="64"><path d="M49.723 19.477a1.23 1.23 0 0 1 0-2.462h11.815c.68 0 1.231.551 1.231 1.231v29.539c0 .68-.55 1.23-1.23 1.23h-6.647v8.616a1.23 1.23 0 0 1-1.946 1.001l-13.463-9.617H28.062a1.23 1.23 0 1 1 0-2.461h11.815c.256 0 .507.08.715.23l11.839 8.455v-7.454c0-.68.55-1.231 1.23-1.231h6.647V19.477H49.723Z" class="one" fill="#0F1126"/><path d="M2.462 40.4A2.462 2.462 0 0 1 0 37.938V4.462A2.462 2.462 0 0 1 2.462 2h47.261a2.462 2.462 0 0 1 2.462 2.462v33.476a2.462 2.462 0 0 1-2.462 2.462H28.986L13.93 53.576c-1.592 1.392-4.083.262-4.083-1.853V40.4H2.462ZM4.923 6.923v28.554h7.385a2.462 2.462 0 0 1 2.461 2.461v8.36l11.672-10.212a2.462 2.462 0 0 1 1.62-.61h19.2V6.924H4.924Z" class="two" fill="#0F1126"/></svg>
